X:1
T: Lord John Russell
C:William Marshall
R:Reel
Q: 232
K:Bb
M:4/4
L:1/8
|:f|ed cA BF Bd|GB FD C2 Cf|ed cA BF Bd|GB FD B,2 B,f|
ed cA BF Bd|GB FD C2 Cf|ed cA BF Bd|GB FD B,2 B,E|
DE1/2F1/2 B,F DF B,F|BF dB c2 ce|DE1/2F1/2 B,F DF EG|FB Ac B2 Bd|
DE1/2F1/2 B,F DF B,F|BF dB c2 ce|df eg fB dB|AF GA B2 B:|
